X: 1250
T: The New Road
M:C|
L:1/8
R:Reel
B:O'Neill's 1250
N:Collected by J. O'Neill
Z:Transcribed by Trish O'Neil
K:D
DFED dfed|cAGF EFGE|DFED dfed|cAGE AFGE|
DFED dfed|cAGF Ecc2|DFED dfed|cAGE FDD2||
fefg fagf|eAceg2ag|fede fage|fdec Adde|
fede fagf|eAceg2fg|afge dfed|cAGE FDD2||


